icon-svg/mercadona.svg

<svg xmlns="http://www.w3.org/2000/svg" viewBox="0 0 24 24"><path fill="#44739e" d="M17.067 8.468a7 7 0 0 1-.337 1.182c.438.085.386.68.886.571l.57-.634c.208-.427-.377-.528-.169-.992a.47.47 0 0 0-.443-.19 3 3 0 0 0-.507.063M12.78 9.566h.549l.909-1.33a1.95 1.95 0 0 1 .759-.57v-.212a.66.66 0 0 0-.7-.4c-.309.288-.548-.037-.886-.021a.6.6 0 0 0-.148.042c-.703.283-.414 1.654-.483 2.491m-4.814 0-.067-.275a3 3 0 0 0-.9-.087 1.51 1.51 0 0 0-1.267.699c-.085.208.125.328.3.317a2.65 2.65 0 0 1 1.934-.654m-1.141-1.9c.062.17-.108.243-.085.4 0 .257.285.2.444.3.488 0 1.147.532 1.415-.127.159-.146.491-.063.528-.3-.267-.3 0-.854-.337-1.1-.318.366-.542-.2-.909-.064-.31.278-.555-.017-.887-.021a.6.6 0 0 0-.148.021.41.41 0 0 0-.253.275.66.66 0 0 0 .232.616m6.8 1.921 1.689-.021c.072 0 .764.009.972.021.5-.451.292-1.242.549-1.816.121-.536.599-.754.844-1.287-.173-.092-.436-.419-.634-.36-.065.02-.123.084-.168.212a2.4 2.4 0 0 1-1.246 1.287c-1.001.221-1.396 1.293-2.006 1.964m-5.342 0h1.329l.086-.464a1.56 1.56 0 0 1 .4-.57 1.55 1.55 0 0 0-.739-.211 1.16 1.16 0 0 0-.76.19 1.08 1.08 0 0 0-.316 1.055m1.773-1.372c.013-.007.065 0 .232.148.276-.1.45-.261.74-.19.012-.11 0-.486 0-.486a2 2 0 0 0-.549-.085 1.85 1.85 0 0 0-1.141.444 2.2 2.2 0 0 1 .676.148c.016.022.038.017.042.021m.127.634a1.3 1.3 0 0 0-.233.738h1.12V8.532a1.3 1.3 0 0 0-.887.317m-3.142 1.503c-.025.333 0 .731 0 1.151 0 .442.009.909.009 1.342 0 .517 0 .986-.01 1.313 0 .287-.008.463 0 .466a.91.91 0 0 0 .572.733l.781-.018h7.211l.781.018a.91.91 0 0 0 .571-.733v-.466c0-.327-.011-.8-.011-1.313 0-.433.008-.9.009-1.342 0-.42.029-.818 0-1.151a.85.85 0 0 0-.61-.524h-3.889l-.005-4.806c-.062-.207-.27-.259-.453-.32-.184.061-.39.113-.451.32l-.006 4.806H7.651a.85.85 0 0 0-.61.524m2.634 10.247a.4.4 0 0 1 .287.116l.092.1a.32.32 0 0 0 .213.078.326.326 0 0 0 .328-.323.5.5 0 0 0-.24-.384 1.08 1.08 0 0 0-.675-.24 1.027 1.027 0 1 0-.005 2.053 1.1 1.1 0 0 0 .7-.259.5.5 0 0 0 .217-.36.33.33 0 0 0-.328-.315.34.34 0 0 0-.231.093l-.07.069a.4.4 0 0 1-.295.129.379.379 0 1 1 0-.758Zm-3.354 0a.36.36 0 0 0 .253-.069.3.3 0 0 0 .107-.236.29.29 0 0 0-.231-.282 1 1 0 0 0-.25-.013h-.4a.6.6 0 0 0-.287.033.28.28 0 0 0-.157.157.5.5 0 0 0-.032.25v1.06a.7.7 0 0 0 .014.194.3.3 0 0 0 .189.236.7.7 0 0 0 .254.023h.513a.4.4 0 0 0 .277-.065.31.31 0 0 0 .106-.235.3.3 0 0 0-.106-.227.38.38 0 0 0-.277-.074h-.3v-.152h.236a.3.3 0 0 0 .207-.051.235.235 0 0 0-.179-.416h-.27v-.133Zm1.899.6a.7.7 0 0 0 .217-.5.71.71 0 0 0-.531-.675 1.3 1.3 0 0 0-.324-.025h-.377a.32.32 0 0 0-.2.084.33.33 0 0 0-.111.286v1.207a.4.4 0 0 0 .079.272.35.35 0 0 0 .263.121.32.32 0 0 0 .324-.329v-.263l.277.439a.31.31 0 0 0 .273.153.323.323 0 0 0 .333-.319.4.4 0 0 0-.065-.208Zm-.587-.393h-.074v-.207h.069c.1 0 .158.032.158.1s-.053.11-.153.107m13.525.685-.638-1.313a.34.34 0 0 0-.309-.2.33.33 0 0 0-.3.194l-.628 1.3a.4.4 0 0 0-.046.171.326.326 0 0 0 .332.324c.16 0 .257-.082.342-.273h.614c.094.2.188.273.342.273a.33.33 0 0 0 .333-.324.3.3 0 0 0-.042-.152m-1.049-.264.1-.231.1.231Zm-1.4-1.248a.34.34 0 0 0-.272.143.37.37 0 0 0-.061.254v.366l-.527-.634a.3.3 0 0 0-.249-.129.327.327 0 0 0-.347.347v1.238a.38.38 0 0 0 .07.273.35.35 0 0 0 .268.13.34.34 0 0 0 .254-.121.35.35 0 0 0 .074-.258v-.407l.527.652a.33.33 0 0 0 .522.013.4.4 0 0 0 .074-.3v-1.188a.36.36 0 0 0-.078-.259.34.34 0 0 0-.255-.12m-6.879-1.185a8.397 8.397 0 1 0-8.383-8.404 8.414 8.414 0 0 0 8.383 8.404m0-16.194a7.803 7.803 0 1 1-7.797 7.797 7.797 7.797 0 0 1 7.797-7.8ZM7.987 9.104l.127-.3a5 5 0 0 1-1.564-.5.76.76 0 0 1 .043-.549 1.1 1.1 0 0 0-.799-.232.55.55 0 0 0-.254.1c-.024.477-.656.283-.8.7-.184.452.447.374.422.74a.457.457 0 0 0 .549.299 3.3 3.3 0 0 1 2.276-.258m8.014 10.843a1.027 1.027 0 1 0 1.063 1.026 1.035 1.035 0 0 0-1.063-1.026m.005 1.414a.394.394 0 0 1-.4-.388.4.4 0 0 1 .8 0 .4.4 0 0 1-.4.388m-3.928-1.183a.35.35 0 0 0-.314-.2.34.34 0 0 0-.305.194l-.628 1.3a.4.4 0 0 0-.042.171.32.32 0 0 0 .328.324c.161 0 .258-.082.342-.273h.619c.093.2.183.273.337.273a.33.33 0 0 0 .333-.324.3.3 0 0 0-.037-.152Zm-.416 1.049.1-.231.1.231Zm2.763-.985a1.05 1.05 0 0 0-.728-.243h-.476a.32.32 0 0 0-.3.213.7.7 0 0 0-.014.227v1.07a1 1 0 0 0 .009.213.28.28 0 0 0 .139.175.46.46 0 0 0 .282.051h.282a2 2 0 0 0 .342-.023 1 1 0 0 0 .47-.236.96.96 0 0 0-.009-1.447Zm-.489 1.045c-.078.053-.135.057-.365.06v-.748h.055a.6.6 0 0 1 .259.037.38.38 0 0 1 .213.338.4.4 0 0 1-.162.313m-8.988-1.003a.34.34 0 0 0-.1-.217.35.35 0 0 0-.227-.088.34.34 0 0 0-.3.176l-.333.688-.299-.647a.37.37 0 0 0-.333-.217.33.33 0 0 0-.328.3l-.227 1.253v.083a.33.33 0 0 0 .333.352.335.335 0 0 0 .332-.3l.056-.31.129.351a.346.346 0 0 0 .341.264.356.356 0 0 0 .338-.268l.134-.347.074.365a.32.32 0 0 0 .328.25.32.32 0 0 0 .328-.315.6.6 0 0 0-.014-.111Z"/></svg>

<?xml version="1.0" encoding="UTF-8"?>
<svg width="24px" fill="#44739e" height="24px" viewBox="0 0 24 24" version="1.1" xmlns="http://www.w3.org/2000/svg" xmlns:xlink="http://www.w3.org/1999/xlink">
            <path d="m 17.072,8.464 a 6.864,6.864 0 0 1 -0.338,1.183 c 0.439,0.085 0.387,0.68 0.887,0.571 l 0.57,-0.634 C 18.399,9.156 17.814,9.055 18.022,8.591 a 0.471,0.471 0 0 0 -0.443,-0.19 2.774,2.774 0 0 0 -0.507,0.063 z m -4.289,1.099 h 0.549 l 0.909,-1.331 a 1.95,1.95 0 0 1 0.76,-0.57 V 7.45 a 0.657,0.657 0 0 0 -0.7,-0.4 C 13.991,7.338 13.752,7.013 13.414,7.029 a 0.564,0.564 0 0 0 -0.148,0.042 c -0.703,0.283 -0.414,1.654 -0.483,2.492 z m -4.816,0 L 7.9,9.288 A 2.933,2.933 0 0 0 7,9.2 1.509,1.509 0 0 0 5.732,9.9 c -0.085,0.208 0.125,0.328 0.3,0.317 A 2.652,2.652 0 0 1 7.967,9.563 Z M 6.826,7.662 c 0.062,0.17 -0.108,0.243 -0.085,0.4 0,0.257 0.285,0.2 0.444,0.3 0.488,0 1.147,0.532 1.415,-0.127 0.159,-0.146 0.492,-0.063 0.529,-0.3 -0.268,-0.3 0,-0.854 -0.338,-1.1 C 8.473,7.201 8.249,6.635 7.882,6.771 7.572,7.049 7.327,6.754 6.995,6.75 A 0.607,0.607 0 0 0 6.847,6.771 0.408,0.408 0 0 0 6.594,7.046 0.664,0.664 0 0 0 6.826,7.662 Z m 6.802,1.922 1.69,-0.021 c 0.072,0 0.764,0.009 0.972,0.021 0.5,-0.452 0.292,-1.243 0.549,-1.817 0.122,-0.536 0.6,-0.754 0.845,-1.288 C 17.511,6.387 17.248,6.06 17.05,6.119 16.985,6.139 16.926,6.203 16.881,6.331 A 2.386,2.386 0 0 1 15.635,7.619 C 14.634,7.84 14.238,8.912 13.628,9.584 Z m -5.344,0 h 1.33 L 9.7,9.119 A 1.557,1.557 0 0 1 10.1,8.549 1.554,1.554 0 0 0 9.361,8.338 1.164,1.164 0 0 0 8.6,8.528 1.082,1.082 0 0 0 8.284,9.584 Z m 1.774,-1.373 c 0.013,-0.007 0.065,0 0.232,0.148 0.276,-0.1 0.45,-0.261 0.74,-0.19 0.012,-0.11 0,-0.486 0,-0.486 A 1.947,1.947 0 0 0 10.481,7.598 1.849,1.849 0 0 0 9.34,8.042 2.173,2.173 0 0 1 10.016,8.19 c 0.016,0.022 0.038,0.017 0.042,0.021 z m 0.127,0.634 A 1.292,1.292 0 0 0 9.952,9.584 h 1.12 V 8.528 a 1.292,1.292 0 0 0 -0.887,0.317 z m -3.143,1.504 c -0.025,0.333 0,0.731 0,1.151 0,0.443 0.009,0.91 0.009,1.343 0,0.517 0,0.986 -0.01,1.313 0,0.287 -0.008,0.464 0,0.467 a 0.909,0.909 0 0 0 0.572,0.733 l 0.781,-0.018 h 7.214 l 0.781,0.018 a 0.909,0.909 0 0 0 0.572,-0.733 c 0,0 0,-0.18 0,-0.467 0,-0.327 -0.011,-0.8 -0.011,-1.313 0,-0.433 0.008,-0.9 0.009,-1.343 0,-0.42 0.029,-0.818 0,-1.151 A 0.851,0.851 0 0 0 16.348,9.825 h -3.81 -0.08 L 12.453,5.017 C 12.391,4.81 12.183,4.758 12,4.697 11.816,4.758 11.609,4.81 11.548,5.017 l -0.006,4.808 h -0.08 -3.81 a 0.853,0.853 0 0 0 -0.61,0.524 z M 9.677,20.6 a 0.4,0.4 0 0 1 0.287,0.116 l 0.092,0.1 a 0.319,0.319 0 0 0 0.213,0.078 0.326,0.326 0 0 0 0.328,-0.323 0.507,0.507 0 0 0 -0.24,-0.384 1.081,1.081 0 0 0 -0.675,-0.24 1.027,1.027 0 1 0 -0.005,2.053 1.1,1.1 0 0 0 0.7,-0.259 0.5,0.5 0 0 0 0.217,-0.36 0.331,0.331 0 0 0 -0.328,-0.315 0.337,0.337 0 0 0 -0.231,0.093 l -0.07,0.069 a 0.413,0.413 0 0 1 -0.295,0.129 0.379,0.379 0 1 1 0,-0.758 z m -3.356,0 A 0.361,0.361 0 0 0 6.575,20.531 0.3,0.3 0 0 0 6.682,20.295 0.291,0.291 0 0 0 6.451,20.013 0.857,0.857 0 0 0 6.2,20 H 5.8 A 0.589,0.589 0 0 0 5.513,20.033 0.282,0.282 0 0 0 5.356,20.19 0.492,0.492 0 0 0 5.324,20.44 v 1.06 a 0.7,0.7 0 0 0 0.014,0.194 0.3,0.3 0 0 0 0.189,0.236 0.681,0.681 0 0 0 0.254,0.023 H 6.294 A 0.385,0.385 0 0 0 6.572,21.888 0.31,0.31 0 0 0 6.678,21.653 0.294,0.294 0 0 0 6.572,21.426 0.382,0.382 0 0 0 6.294,21.352 h -0.3 V 21.2 H 6.23 A 0.3,0.3 0 0 0 6.438,21.149 0.235,0.235 0 0 0 6.258,20.733 H 5.988 V 20.6 Z m 1.9,0.6 A 0.686,0.686 0 0 0 8.438,20.7 0.707,0.707 0 0 0 7.907,20.025 1.257,1.257 0 0 0 7.583,20 H 7.306 c -0.04,0 -0.072,0 -0.1,0 a 0.322,0.322 0 0 0 -0.2,0.084 0.332,0.332 0 0 0 -0.111,0.286 v 1.207 a 0.405,0.405 0 0 0 0.079,0.272 0.35,0.35 0 0 0 0.263,0.121 0.321,0.321 0 0 0 0.324,-0.329 v -0.263 l 0.277,0.439 A 0.311,0.311 0 0 0 8.111,21.97 0.323,0.323 0 0 0 8.444,21.651 0.382,0.382 0 0 0 8.379,21.443 Z M 7.634,20.807 H 7.56 V 20.6 c 0.03,0 0.054,0 0.069,0 0.1,0 0.158,0.032 0.158,0.1 0,0.068 -0.053,0.11 -0.153,0.107 z m 13.53,0.685 -0.638,-1.313 a 0.339,0.339 0 0 0 -0.309,-0.2 0.333,0.333 0 0 0 -0.3,0.194 l -0.629,1.3 a 0.4,0.4 0 0 0 -0.046,0.171 0.326,0.326 0 0 0 0.332,0.324 c 0.161,0 0.258,-0.082 0.343,-0.273 h 0.614 c 0.094,0.2 0.188,0.273 0.342,0.273 a 0.33,0.33 0 0 0 0.333,-0.324 0.316,0.316 0 0 0 -0.042,-0.152 z m -1.049,-0.264 0.1,-0.231 0.1,0.231 z M 18.714,19.98 a 0.337,0.337 0 0 0 -0.272,0.143 0.374,0.374 0 0 0 -0.061,0.254 v 0.366 l -0.527,-0.634 a 0.307,0.307 0 0 0 -0.249,-0.129 0.327,0.327 0 0 0 -0.347,0.347 v 1.238 a 0.379,0.379 0 0 0 0.07,0.273 0.351,0.351 0 0 0 0.268,0.13 0.338,0.338 0 0 0 0.254,-0.121 0.349,0.349 0 0 0 0.074,-0.258 v -0.407 l 0.527,0.652 a 0.331,0.331 0 0 0 0.522,0.013 0.409,0.409 0 0 0 0.074,-0.3 V 20.359 A 0.364,0.364 0 0 0 18.969,20.1 0.341,0.341 0 0 0 18.714,19.98 Z m -6.881,-1.186 a 8.4,8.4 0 1 0 -8.387,-8.407 8.417,8.417 0 0 0 8.387,8.407 z m 0,-16.2 a 7.806,7.806 0 1 1 -7.8,7.8 7.8,7.8 0 0 1 7.8,-7.803 z M 7.988,9.1 8.115,8.8 A 4.965,4.965 0 0 1 6.551,8.3 0.761,0.761 0 0 1 6.594,7.751 1.086,1.086 0 0 0 5.794,7.519 0.551,0.551 0 0 0 5.54,7.619 C 5.516,8.096 4.884,7.902 4.74,8.319 4.556,8.771 5.187,8.693 5.162,9.059 A 0.457,0.457 0 0 0 5.711,9.359 3.312,3.312 0 0 1 7.988,9.1 Z m 8.017,10.848 a 1.027,1.027 0 1 0 1.064,1.026 1.035,1.035 0 0 0 -1.064,-1.026 z m 0.005,1.414 a 0.394,0.394 0 0 1 -0.4,-0.388 0.4,0.4 0 0 1 0.8,0 0.4,0.4 0 0 1 -0.4,0.388 z m -3.929,-1.183 a 0.348,0.348 0 0 0 -0.314,-0.2 0.336,0.336 0 0 0 -0.306,0.194 l -0.628,1.3 a 0.4,0.4 0 0 0 -0.042,0.171 0.322,0.322 0 0 0 0.328,0.324 c 0.161,0 0.258,-0.082 0.342,-0.273 h 0.62 c 0.093,0.2 0.183,0.273 0.337,0.273 a 0.33,0.33 0 0 0 0.333,-0.324 0.316,0.316 0 0 0 -0.037,-0.152 z m -0.416,1.049 0.1,-0.231 0.1,0.231 z m 2.764,-0.985 A 1.053,1.053 0 0 0 13.7,20 h -0.407 c -0.024,0 -0.047,0 -0.069,0 a 0.319,0.319 0 0 0 -0.3,0.213 0.655,0.655 0 0 0 -0.014,0.227 v 1.07 a 0.864,0.864 0 0 0 0.009,0.213 0.281,0.281 0 0 0 0.139,0.175 0.455,0.455 0 0 0 0.282,0.051 h 0.282 a 2.057,2.057 0 0 0 0.342,-0.023 1,1 0 0 0 0.471,-0.236 0.961,0.961 0 0 0 -0.009,-1.447 z m -0.49,1.045 c -0.078,0.053 -0.135,0.057 -0.365,0.06 V 20.6 h 0.055 a 0.6,0.6 0 0 1 0.259,0.037 0.375,0.375 0 0 1 0.213,0.338 0.393,0.393 0 0 1 -0.162,0.313 z M 4.948,20.285 a 0.339,0.339 0 0 0 -0.1,-0.217 0.351,0.351 0 0 0 -0.227,-0.088 0.339,0.339 0 0 0 -0.3,0.176 l -0.333,0.688 -0.3,-0.647 A 0.368,0.368 0 0 0 3.355,19.98 0.331,0.331 0 0 0 3.027,20.28 L 2.8,21.533 a 0.769,0.769 0 0 0 0,0.083 0.329,0.329 0 0 0 0.333,0.352 0.335,0.335 0 0 0 0.332,-0.3 l 0.056,-0.31 0.129,0.351 a 0.346,0.346 0 0 0 0.342,0.264 0.356,0.356 0 0 0 0.338,-0.268 l 0.134,-0.347 0.074,0.365 a 0.317,0.317 0 0 0 0.328,0.25 0.32,0.32 0 0 0 0.328,-0.315 0.568,0.568 0 0 0 -0.014,-0.111 z"/>

</svg>
